X:4
T:On Book Hill: Quail Dove (or Debut Kill)
D:Brendan Begley & Caoimhín Ó Raghallaigh: A Moment of Madness (2010)
R:polka
M:2/4
K:D
% Normalement: c'est en Eb
|: DE FG | Ad cA | GE FE | D2 DE | FA GC | ED D2 :|
|: de f2 | ed fe | ed cA |
   de f2 | ed fe | ef dA |
   d2 cA | GE FE | D>A, DE | FA GC | ED D2 :|

